X: 9612
T: Dawn's Mandolin
R: reel
M: 4/4
K: Gminor
|:DGGG FDCF|DGGG FDCF|DGGG FDCF|D2 B2 A4|
DGGG FDCF|DGGG FDCF|G2 GG FDCF|B,DA,D G,4:|
|:B2 BB AFDA|B2 BB AFDA|B2 BB AFDA|D2 B2 A4|
B2 BB AFDA|DGGG FDCF|G2 GG FDCF|B,DA,D G,4:|

